X:943
T:The hills of Lorne
R:Air
O:Scotland
C:Charlie Hunter
S:Richard Darsie's web page
Z:Transcription, chords:Mike Long
M:C
L:1/8
K:D
FE|\
"D"D2FG "(A)"A2d2|"D"f3e d2A2|"G"B3d "D"A2F2|"A"E2GF E2FE|\
"D"D2FG "(A)"A2d2|"D"f3e d2A2|"G"B2gB "A"A2c2|"D"d6:|
|:ag|\
"D"f2ed "G"B2cd|"D"A3F "(A)"A2ag|"D"f2ed A2df|"A"e6 ag|\
"D"f2ed "(A)"A2dc|"G"B2d2 g2ag|"D"f2ed "A"A2c2|"D"d6:|
